X: 13942
T: Fraher's
R: jig
M: 6/8
K: Dmixolydian
|:~A3 GED|~F3 GED|~A3 GEA|DED DFG|
~A3 GED|~F3 GED|BcA GEA|1 DED DEG:|2 DED D2A||
|:AcA d2A|d2A AGE|GAB c2A|BGE EDD|
dAA def|dcA AGE|BcA GEA|1 DED D2A:|2 DED DEG||

